app/images/logo.svg

<svg xmlns="http://www.w3.org/2000/svg" width="225.677" height="244.14" viewBox="0, 0, 225.677, 244.14"><defs><clipPath id="a"><path d="M0 0h225.677v244.14H0z"/></clipPath></defs><g clip-path="url(#a)"><path d="M225.677 97.505C225.677 43.655 196.367 0 160.2 0c-17.066 0-32.616 9.722-44.257 25.65-9.148 13.812-39.49 55.6-61.154 56.527H27.074C12.125 82.177 0 94.303 0 109.265v106.507c0 14.962 12.126 27.075 27.075 27.075h171.528c14.948 0 27.074-12.113 27.074-27.075z" fill="#231F20"/><path d="M32.25 244.14H20.043v-43.474H32.25zM45.55 244.14H33.348v-43.474H45.55zM58.854 244.14H46.65v-43.474h12.204zM72.154 244.14H59.95v-43.474h12.204zM85.457 244.14H73.252v-43.474h12.205zM98.76 244.14H86.554v-43.474H98.76zM112.06 244.14H99.858v-43.474h12.204zM125.363 244.14h-12.205v-43.474h12.205zM138.652 244.14h-12.19v-43.474h12.19zM151.953 244.14H139.75v-43.474h12.203zM165.256 244.14H153.05v-43.474h12.206zM178.558 244.14h-12.204v-43.474h12.204zM191.86 244.14h-12.205v-43.474h12.205zM205.162 244.14h-12.205v-43.474h12.205z" fill="#FFF"/><path d="M36.98 226.97h-8.376v-26.304h8.375zM49.928 226.97h-8.39v-26.304h8.39zM63.49 226.97h-8.388v-26.304h8.39zM130.17 226.97h-8.388v-26.304h8.39zM143.525 226.97h-8.39v-26.304h8.39zM156.763 226.97h-8.39v-26.304h8.39zM90.16 226.97h-8.388v-26.304h8.39zM103.358 226.97h-8.39v-26.304h8.39zM183.367 226.97h-8.402v-26.304h8.402zM196.55 226.97h-8.375v-26.304h8.376z" fill="#231F20"/></g></svg>

<?xml version="1.0" encoding="UTF-8"?>
<!DOCTYPE svg PUBLIC "-//W3C//DTD SVG 1.1//EN" "http://www.w3.org/Graphics/SVG/1.1/DTD/svg11.dtd">
<svg version="1.1" xmlns="http://www.w3.org/2000/svg" xmlns:xlink="http://www.w3.org/1999/xlink" x="0" y="0" width="225.677" height="244.14" viewBox="0, 0, 225.677, 244.14">
  <defs>
    <clipPath id="Clip_1">
      <path d="M-0,0 L225.677,0 L225.677,244.14 L-0,244.14 z"/>
    </clipPath>
  </defs>
  <g id="—ÎÓÈ_1">
    <g clip-path="url(#Clip_1)">
      <path d="M225.677,97.505 C225.677,43.656 196.367,-0 160.2,-0 C143.134,-0 127.584,9.722 115.943,25.65 C106.795,39.462 76.454,81.249 54.789,82.177 L27.075,82.177 C12.126,82.177 -0,94.303 -0,109.265 L-0,215.772 C-0,230.734 12.126,242.847 27.075,242.847 L198.603,242.847 C213.551,242.847 225.677,230.734 225.677,215.772 z" fill="#231F20"/>
      <path d="M32.249,244.14 L20.044,244.14 L20.044,200.666 L32.249,200.666 z" fill="#FFFFFF"/>
      <path d="M45.551,244.14 L33.347,244.14 L33.347,200.666 L45.551,200.666 z" fill="#FFFFFF"/>
      <path d="M58.854,244.14 L46.649,244.14 L46.649,200.666 L58.854,200.666 z" fill="#FFFFFF"/>
      <path d="M72.154,244.14 L59.951,244.14 L59.951,200.666 L72.154,200.666 z" fill="#FFFFFF"/>
      <path d="M85.457,244.14 L73.252,244.14 L73.252,200.666 L85.457,200.666 z" fill="#FFFFFF"/>
      <path d="M98.759,244.14 L86.555,244.14 L86.555,200.666 L98.759,200.666 z" fill="#FFFFFF"/>
      <path d="M112.061,244.14 L99.857,244.14 L99.857,200.666 L112.061,200.666 z" fill="#FFFFFF"/>
      <path d="M125.363,244.14 L113.158,244.14 L113.158,200.666 L125.363,200.666 z" fill="#FFFFFF"/>
      <path d="M138.652,244.14 L126.461,244.14 L126.461,200.666 L138.652,200.666 z" fill="#FFFFFF"/>
      <path d="M151.953,244.14 L139.75,244.14 L139.75,200.666 L151.953,200.666 z" fill="#FFFFFF"/>
      <path d="M165.256,244.14 L153.051,244.14 L153.051,200.666 L165.256,200.666 z" fill="#FFFFFF"/>
      <path d="M178.558,244.14 L166.354,244.14 L166.354,200.666 L178.558,200.666 z" fill="#FFFFFF"/>
      <path d="M191.86,244.14 L179.655,244.14 L179.655,200.666 L191.86,200.666 z" fill="#FFFFFF"/>
      <path d="M205.162,244.14 L192.957,244.14 L192.957,200.666 L205.162,200.666 z" fill="#FFFFFF"/>
      <path d="M36.979,226.971 L28.604,226.971 L28.604,200.666 L36.979,200.666 z" fill="#231F20"/>
      <path d="M49.928,226.971 L41.539,226.971 L41.539,200.666 L49.928,200.666 z" fill="#231F20"/>
      <path d="M63.491,226.971 L55.102,226.971 L55.102,200.666 L63.491,200.666 z" fill="#231F20"/>
      <path d="M130.171,226.971 L121.782,226.971 L121.782,200.666 L130.171,200.666 z" fill="#231F20"/>
      <path d="M143.525,226.971 L135.136,226.971 L135.136,200.666 L143.525,200.666 z" fill="#231F20"/>
      <path d="M156.763,226.971 L148.374,226.971 L148.374,200.666 L156.763,200.666 z" fill="#231F20"/>
      <path d="M90.161,226.971 L81.772,226.971 L81.772,200.666 L90.161,200.666 z" fill="#231F20"/>
      <path d="M103.358,226.971 L94.968,226.971 L94.968,200.666 L103.358,200.666 z" fill="#231F20"/>
      <path d="M183.367,226.971 L174.965,226.971 L174.965,200.666 L183.367,200.666 z" fill="#231F20"/>
      <path d="M196.551,226.971 L188.175,226.971 L188.175,200.666 L196.551,200.666 z" fill="#231F20"/>
    </g>
  </g>
</svg>
